X: 17944
T: How Cold The Wind Doth Blow
R: barndance
M: 4/4
K: Gmajor
D2|G3 F E2 FG|A2 B2 D2 zc|c3 cBA G2|A6|
zD|GABc d3 c|BAGF E2 cc|B2 D2 F2 A2|G6||

